Numix-GalliumOS/32/categories/applications-lisp.svg

<?xml version="1.0" encoding="UTF-8" standalone="no"?>
<svg
   xmlns:dc="http://purl.org/dc/elements/1.1/"
   xmlns:cc="http://creativecommons.org/ns#"
   xmlns:rdf="http://www.w3.org/1999/02/22-rdf-syntax-ns#"
   xmlns:svg="http://www.w3.org/2000/svg"
   xmlns="http://www.w3.org/2000/svg"
   xmlns:sodipodi="http://sodipodi.sourceforge.net/DTD/sodipodi-0.dtd"
   xmlns:inkscape="http://www.inkscape.org/namespaces/inkscape"
   width="32"
   height="32"
   viewBox="0 0 32 32"
   id="svg2"
   version="1.1"
   inkscape:version="0.91 r"
   sodipodi:docname="applications-lisp.svg">
  <metadata
     id="metadata14">
    <rdf:RDF>
      <cc:Work
         rdf:about="">
        <dc:format>image/svg+xml</dc:format>
        <dc:type
           rdf:resource="http://purl.org/dc/dcmitype/StillImage" />
      </cc:Work>
    </rdf:RDF>
  </metadata>
  <defs
     id="defs12" />
  <sodipodi:namedview
     pagecolor="#ffffff"
     bordercolor="#666666"
     borderopacity="1"
     objecttolerance="10"
     gridtolerance="10"
     guidetolerance="10"
     inkscape:pageopacity="0"
     inkscape:pageshadow="2"
     inkscape:window-width="1680"
     inkscape:window-height="1026"
     id="namedview10"
     showgrid="true"
     inkscape:zoom="8"
     inkscape:cx="-14.754893"
     inkscape:cy="28.514641"
     inkscape:window-x="0"
     inkscape:window-y="24"
     inkscape:window-maximized="1"
     inkscape:current-layer="svg2">
    <inkscape:grid
       type="xygrid"
       id="grid4142" />
  </sodipodi:namedview>
  <g
     transform="matrix(0.14392579,0,0,0.14392579,-55.80428,-40.947719)"
     id="layer1"
     inkscape:label="Layer 1"
     style="fill:#d07d86;fill-opacity:1;stroke:#812222;stroke-width:3.47401261;stroke-miterlimit:4;stroke-dasharray:none;stroke-opacity:1">
    <g
       style="fill:#d07d86;fill-opacity:1;stroke:#812222;stroke-width:5.31999397;stroke-miterlimit:4;stroke-dasharray:none;stroke-opacity:1"
       transform="matrix(0.65301062,0,0,0.65301062,307.8867,290.92215)"
       id="g1884">
      <path
         style="color:#000000;font-style:normal;font-variant:normal;font-weight:normal;font-stretch:normal;font-size:medium;line-height:normal;font-family:sans-serif;text-indent:0;text-align:start;text-decoration:none;text-decoration-line:none;text-decoration-style:solid;text-decoration-color:#000000;letter-spacing:normal;word-spacing:normal;text-transform:none;direction:ltr;block-progression:tb;writing-mode:lr-tb;baseline-shift:baseline;text-anchor:start;white-space:normal;clip-rule:nonzero;display:inline;overflow:visible;visibility:visible;opacity:1;isolation:auto;mix-blend-mode:normal;color-interpolation:sRGB;color-interpolation-filters:linearRGB;solid-color:#000000;solid-opacity:1;fill:#d07d86;fill-opacity:1;fill-rule:evenodd;stroke:none;stroke-width:5.31999397;stroke-linecap:butt;stroke-linejoin:miter;stroke-miterlimit:4;stroke-dasharray:none;stroke-dashoffset:0;stroke-opacity:1;color-rendering:auto;image-rendering:auto;shape-rendering:auto;text-rendering:auto;enable-background:accumulate"
         d="m 6.5,-12 c -0.8284271,0 -1.5,0.671573 -1.5,1.5 -1e-7,2.5000003 -1e-7,5.5000002 0,8.5 1e-7,2.19137201 1.808628,4 4,4 L 18.994141,2 19,2 c 1.079053,-3.42e-5 2.112321,-0.4360214 2.865234,-1.20898438 1.23157,-1.26448156 1.488718,-3.18673962 0.632813,-4.73046872 C 21.794666,-5.206541 20.460944,-5.9940725 19.011719,-5.9980469 19.007747,-5.9980981 19.003977,-6 19,-6 18.643017,-6.0002826 18.313257,-6.1908437 18.134766,-6.5 17.859029,-6.9779091 18.022469,-7.5888431 18.5,-7.8652344 18.651943,-7.9532792 18.824391,-7.9997596 19,-8 c 0.825828,-0.00543 0,3e-7 2.5,0 0.828427,0 1.5,-0.6715729 1.5,-1.5 0,-0.828427 -0.671573,-1.5 -1.5,-1.5 L 19.085938,-11 19,-11 c -0.0057,0 -0.01185,0.0037 -0.01758,0.0039 -1.182919,0.0054 -2.305576,0.529676 -3.0625,1.4433596 -1.024348,1.2360893 -1.21045,2.964839 -0.472656,4.390625 0.686327,1.3266295 2.049867,2.1422645 3.52539,2.1523438 0.002,0.00453 0.0019,0.00519 0.0039,0.00977 0.365331,-0.00822 0.706054,0.183482 0.888672,0.5 0.275737,0.4779091 0.112297,1.0888431 -0.365234,1.3652344 -0.152132,0.087362 -0.324569,0.1331659 -0.5,0.1328125 L 19,-1 9,-1 C 8.4299483,-1 8,-1.4299483 8,-2 l 0,-8.5 C 8,-11.328427 7.3284271,-12 6.5,-12 Z"
         transform="matrix(10.639988,0,0,10.639988,90.348856,234.89389)"
         id="path2424"
         inkscape:connector-curvature="0"
         sodipodi:nodetypes="sccccccccccccssscscccccsccccccs" />
    </g>
  </g>
  <path
     style="opacity:1;fill:#4793db;fill-opacity:1;fill-rule:nonzero;stroke:none;stroke-width:0.5;stroke-linecap:round;stroke-linejoin:miter;stroke-miterlimit:4;stroke-dasharray:none;stroke-dashoffset:0;stroke-opacity:1"
     id="path4227"
     cy="-7.78125"
     cx="17.796875"
     ry="1.5"
     rx="4" />
  <path
     style="opacity:1;fill:#d07d86;fill-opacity:1;fill-rule:nonzero;stroke:none;stroke-width:0.5;stroke-linecap:round;stroke-linejoin:miter;stroke-miterlimit:4;stroke-dasharray:none;stroke-dashoffset:0;stroke-opacity:1"
     d="M 11,7.0000007 C 8.8086279,7.0000007 6.9999998,8.8086287 6.9999999,11 l 0,7.5 c 0,0.828427 0.6715729,1.5 1.5,1.5 0.828427,0 1.5,-0.671573 1.5,-1.5 l 0,-7.5 c 0,-0.570051 0.4299481,-1 1.0000001,-1 l 15,0 c 0.570052,0 1,0.429948 1,1 0,0.570052 -0.429948,1 -1,1 -2.191372,0 -4,1.808628 -4,4 l 0,2.5 c 0,0.828427 0.671573,1.5 1.5,1.5 0.828427,0 1.5,-0.671573 1.5,-1.5 L 25,16 c 0,-0.570052 0.429948,-1 1,-1 2.191372,0 4,-1.808628 4,-4 0,-2.1913713 -1.808628,-3.9999993 -4,-3.9999993 z"
     id="path4249"
     inkscape:connector-curvature="0"
     sodipodi:nodetypes="cccsccccssccsccsscc" />
</svg>

<svg xmlns="http://www.w3.org/2000/svg" viewBox="0 0 32 32">
 <g transform="matrix(0.14392579,0,0,0.14392579,-55.80428,-40.947719)" style="stroke-dasharray:none;stroke-opacity:1;fill:#d07d86;stroke-miterlimit:4;fill-opacity:1;stroke:#812222;stroke-width:3.474">
  <g transform="matrix(0.65301062,0,0,0.65301062,307.8867,290.92215)" style="stroke-width:5.32">
   <path d="m 6.5 -12 c -0.828 0 -1.5 0.672 -1.5 1.5 0 2.5 0 5.5 0 8.5 0 2.191 1.809 4 4 4 l 9.994 0 0.006 0 c 1.079 0 2.112 -0.436 2.865 -1.209 1.232 -1.264 1.489 -3.187 0.633 -4.73 c -0.703 -1.267 -2.037 -2.055 -3.486 -2.059 -0.004 0 -0.008 -0.002 -0.012 -0.002 -0.357 0 -0.687 -0.191 -0.865 -0.5 -0.276 -0.478 -0.112 -1.089 0.365 -1.365 0.152 -0.088 0.324 -0.135 0.5 -0.135 c 0.826 -0.005 0 0 2.5 0 0.828 0 1.5 -0.672 1.5 -1.5 0 -0.828 -0.672 -1.5 -1.5 -1.5 l -2.414 0 -0.086 0 c -0.006 0 -0.012 0.004 -0.018 0.004 -1.183 0.005 -2.306 0.53 -3.063 1.443 -1.024 1.236 -1.21 2.965 -0.473 4.391 0.686 1.327 2.05 2.142 3.525 2.152 0.002 0.005 0.002 0.005 0.004 0.01 0.365 -0.008 0.706 0.183 0.889 0.5 0.276 0.478 0.112 1.089 -0.365 1.365 -0.152 0.087 -0.325 0.133 -0.5 0.133 l 0 0.002 -10 0 c -0.57 0 -1 -0.43 -1 -1 l 0 -8.5 c 0 -0.828 -0.672 -1.5 -1.5 -1.5" transform="matrix(10.639988,0,0,10.639988,90.348856,234.89389)" mix-blend-mode="normal" isolation="auto" white-space="normal" solid-opacity="1" solid-color="#000000" style="visibility:visible;shape-rendering:auto;color-interpolation-filters:linearRGB;opacity:1;image-rendering:auto;stroke:none;display:inline;color:#000;fill-rule:evenodd;color-rendering:auto;color-interpolation:sRGB"/>
  </g>
 </g>
 <path d="m 11 7 c -2.191 0 -4 1.809 -4 4 l 0 7.5 c 0 0.828 0.672 1.5 1.5 1.5 0.828 0 1.5 -0.672 1.5 -1.5 l 0 -7.5 c 0 -0.57 0.43 -1 1 -1 l 15 0 c 0.57 0 1 0.43 1 1 0 0.57 -0.43 1 -1 1 -2.191 0 -4 1.809 -4 4 l 0 2.5 c 0 0.828 0.672 1.5 1.5 1.5 0.828 0 1.5 -0.672 1.5 -1.5 l 0 -2.5 c 0 -0.57 0.43 -1 1 -1 2.191 0 4 -1.809 4 -4 0 -2.191 -1.809 -4 -4 -4 z" style="fill:#d07d86;opacity:1;fill-opacity:1;stroke:none;fill-rule:nonzero"/>
</svg>
